svg/emoji_u1f530.svg

<svg width="128" height="128" viewBox="0 0 128 128" fill="none" xmlns="http://www.w3.org/2000/svg">
<path d="M61.5 34L22.5 4.88001C19.88 2.79001 16 4.65001 16 8.01001V90.08C16 91.3 16.55 92.44 17.5 93.2L61.5 123.12C62.23 123.7 63.11 124 64 124V34.88C63.12 34.88 62.23 34.59 61.5 34Z" fill="#FCE438" style="fill:#FCE438;fill:color(display-p3 0.9882 0.8941 0.2196);fill-opacity:1;"/>
<path d="M105.5 4.88001L66.5 34C65.77 34.58 64.89 34.88 64 34.88V124C64.88 124 65.77 123.71 66.5 123.12L110.5 93.2C111.45 92.44 112 91.29 112 90.08V8.01001C112 4.65001 108.12 2.79001 105.5 4.88001Z" fill="#26A659" style="fill:#26A659;fill:color(display-p3 0.1490 0.6510 0.3498);fill-opacity:1;"/>
<path opacity="0.6" d="M20.75 19.81C22.15 21.13 49.78 41.05 49.78 41.05C49.78 41.05 52.61 43.11 54.5 40.88C56.33 38.74 54.75 36.45 53.26 35.43C51.77 34.41 28.16 16.76 26.56 15.9C25.02 14.97 22.43 15.38 21.06 16.5C19.69 17.62 19.71 18.85 20.75 19.81Z" fill="white" style="fill:white;fill-opacity:1;"/>
<path opacity="0.3" d="M73.57 42.0201C75.28 41.1501 94.48 26.2301 94.48 26.2301C94.48 26.2301 97.37 24.2601 95.91 21.7301C94.51 19.2901 91.82 20.0001 90.36 21.0601C88.9 22.1201 73.19 34.0101 71.85 35.2301C70.45 36.3701 69.97 38.9401 70.56 40.6101C71.16 42.2801 72.32 42.6801 73.57 42.0201Z" fill="white" style="fill:white;fill-opacity:1;"/>
<path opacity="0.3" d="M100.61 20.2699C102.432 20.2699 103.91 18.7925 103.91 16.9699C103.91 15.1474 102.432 13.6699 100.61 13.6699C98.7874 13.6699 97.3099 15.1474 97.3099 16.9699C97.3099 18.7925 98.7874 20.2699 100.61 20.2699Z" fill="white" style="fill:white;fill-opacity:1;"/>
</svg>

<?xml version="1.0" encoding="utf-8"?>
<!-- Generator: Adobe Illustrator 25.2.3, SVG Export Plug-In . SVG Version: 6.00 Build 0)  -->
<svg version="1.1" id="_x31_" xmlns="http://www.w3.org/2000/svg" xmlns:xlink="http://www.w3.org/1999/xlink" x="0px" y="0px"
	 viewBox="0 0 128 128" style="enable-background:new 0 0 128 128;" xml:space="preserve">
<g>
	<path style="fill:#FCE438;" d="M61.5,34l-39-29.12C19.88,2.79,16,4.65,16,8.01v82.07c0,1.22,0.55,2.36,1.5,3.12l44,29.92
		c0.73,0.58,1.61,0.88,2.5,0.88V34.88C63.12,34.88,62.23,34.59,61.5,34z"/>
	<path style="fill:#26A69A;" d="M105.5,4.88L66.5,34c-0.73,0.58-1.61,0.88-2.5,0.88V124c0.88,0,1.77-0.29,2.5-0.88l44-29.92
		c0.95-0.76,1.5-1.91,1.5-3.12V8.01C112,4.65,108.12,2.79,105.5,4.88z"/>
</g>
<path style="opacity:0.6;fill:#FFFFFF;enable-background:new    ;" d="M20.75,19.81c1.4,1.32,29.03,21.24,29.03,21.24
	s2.83,2.06,4.72-0.17c1.83-2.14,0.25-4.43-1.24-5.45c-1.49-1.02-25.1-18.67-26.7-19.53c-1.54-0.93-4.13-0.52-5.5,0.6
	S19.71,18.85,20.75,19.81z"/>
<g>
	<path style="opacity:0.3;fill:#FFFFFF;enable-background:new    ;" d="M73.57,42.02c1.71-0.87,20.91-15.79,20.91-15.79
		s2.89-1.97,1.43-4.5c-1.4-2.44-4.09-1.73-5.55-0.67c-1.46,1.06-17.17,12.95-18.51,14.17c-1.4,1.14-1.88,3.71-1.29,5.38
		C71.16,42.28,72.32,42.68,73.57,42.02z"/>
	<circle style="opacity:0.3;fill:#FFFFFF;enable-background:new    ;" cx="100.61" cy="16.97" r="3.3"/>
</g>
</svg>
